src/assets/svg/instagram.svg

<svg xmlns="http://www.w3.org/2000/svg" width="24" height="24" viewBox="0 0 24 24"><path d="M12 2.163c3.204 0 3.584.012 4.85.07 3.252.148 4.771 1.691 4.919 4.919.058 1.265.069 1.645.069 4.849 0 3.205-.012 3.584-.069 4.849-.149 3.225-1.664 4.771-4.919 4.919-1.266.058-1.644.07-4.85.07-3.204 0-3.584-.012-4.849-.07-3.26-.149-4.771-1.699-4.919-4.92-.058-1.265-.07-1.644-.07-4.849 0-3.204.013-3.583.07-4.849.149-3.227 1.664-4.771 4.919-4.919 1.266-.057 1.645-.069 4.849-.069zm0-2.163c-3.259 0-3.667.014-4.947.072-4.358.2-6.78 2.618-6.98 6.98-.059 1.281-.073 1.689-.073 4.948 0 3.259.014 3.668.072 4.948.2 4.358 2.618 6.78 6.98 6.98 1.281.058 1.689.072 4.948.072 3.259 0 3.668-.014 4.948-.072 4.354-.2 6.782-2.618 6.979-6.98.059-1.28.073-1.689.073-4.948 0-3.259-.014-3.667-.072-4.947-.196-4.354-2.617-6.78-6.979-6.98-1.281-.059-1.69-.073-4.949-.073zm0 5.838c-3.403 0-6.162 2.759-6.162 6.162s2.759 6.163 6.162 6.163 6.162-2.759 6.162-6.163c0-3.403-2.759-6.162-6.162-6.162zm0 10.162c-2.209 0-4-1.79-4-4 0-2.209 1.791-4 4-4s4 1.791 4 4c0 2.21-1.791 4-4 4zm6.406-11.845c-.796 0-1.441.645-1.441 1.44s.645 1.44 1.441 1.44c.795 0 1.439-.645 1.439-1.44s-.644-1.44-1.439-1.44z"/></svg>

<svg width="24" height="24" viewBox="0 0 24 24" fill="none" xmlns="http://www.w3.org/2000/svg">
<path d="M12 2.163C15.204 2.163 15.584 2.175 16.85 2.233C20.102 2.381 21.621 3.924 21.769 7.152C21.827 8.417 21.838 8.797 21.838 12.001C21.838 15.206 21.826 15.585 21.769 16.85C21.62 20.075 20.105 21.621 16.85 21.769C15.584 21.827 15.206 21.839 12 21.839C8.796 21.839 8.416 21.827 7.151 21.769C3.891 21.62 2.38 20.07 2.232 16.849C2.174 15.584 2.162 15.205 2.162 12C2.162 8.796 2.175 8.417 2.232 7.151C2.381 3.924 3.896 2.38 7.151 2.232C8.417 2.175 8.796 2.163 12 2.163V2.163ZM12 0C8.741 0 8.333 0.014 7.053 0.072C2.695 0.272 0.273 2.69 0.073 7.052C0.014 8.333 0 8.741 0 12C0 15.259 0.014 15.668 0.072 16.948C0.272 21.306 2.69 23.728 7.052 23.928C8.333 23.986 8.741 24 12 24C15.259 24 15.668 23.986 16.948 23.928C21.302 23.728 23.73 21.31 23.927 16.948C23.986 15.668 24 15.259 24 12C24 8.741 23.986 8.333 23.928 7.053C23.732 2.699 21.311 0.273 16.949 0.073C15.668 0.014 15.259 0 12 0V0ZM12 5.838C8.597 5.838 5.838 8.597 5.838 12C5.838 15.403 8.597 18.163 12 18.163C15.403 18.163 18.162 15.404 18.162 12C18.162 8.597 15.403 5.838 12 5.838ZM12 16C9.791 16 8 14.21 8 12C8 9.791 9.791 8 12 8C14.209 8 16 9.791 16 12C16 14.21 14.209 16 12 16ZM18.406 4.155C17.61 4.155 16.965 4.8 16.965 5.595C16.965 6.39 17.61 7.035 18.406 7.035C19.201 7.035 19.845 6.39 19.845 5.595C19.845 4.8 19.201 4.155 18.406 4.155Z"/>
</svg>
